X: 25082
T: Maids Of Mitchelstown, The
R: reel
M: 4/4
K: Dminor
|:D2AG EEG2|A2GA cAGE|D2AG EEG2|A2GE EDDC:|
|:EGA=B c2AG|Adde f2ed|cAGE F3G|1 AcGE EDD2:|2 Ac=Bd cAGE||

